X:190
T:Marian Gray. CJF.190
R:Air
S:C.J.Fox MS, 1829/33, Beverley,E.Yorks.
N:”Companion to Alice Gray” is in the title line. It is not
N:clear in the MS whether the notes under “ad lib” are grace
N:notes. The second bar marked with a tilde (~) sounds
N:better with the c notes sharpened. – PJH.
B:Kidson Coll.Mitchell Lib.M1805
O:England
A:East Yorkshire
Z:vmp.P J Headford 2000 & 2008
M:C
L:1/8
Q:2/4=85
K:D
D|F3GA3d|f3ed2B2|A2F2G2E2|”~”(F3G)A2zD|\
F3GA3d|f3e{e}d2{c}B2|!
A2F2G2C2|D3{FE}Dz4|G3F E DzF|B2(AB)e2zB|\
c3c”~”B2(cd)|A2{c}B2A2HA2″ ad lib.”{^G=G}|!
F3GA3d|(fe) (dc){c}HB2(cd)|\
(dF) F”~”>G{B}A2{G/F/}E2|D3{F/E/}Dz4|]

